X: 100447
M: 6/8
L: 1/8
K: Gm
!segno!D |\
=fgf fed | cdB ABc | {Bc}(.d2.d) (.d2.d) | BGG (.G2.d) |
(.g2.g) gab | aff (.f2.a) | (.g2.g2) (.g2.g) | ^fde (.d2.e) |\
=fgf fed | cdB ABc | dcB cBA | GAG G2 ||
uD "^Coda"|\
=fgf fed | cdB ABc | "^Divisi""_>"[dD]"_>"[eE]"_>"[dD] "_>"[cC]"_>"[AA,]"_>"[dD] |\
"^>"[G2G,2]z "^>"[g2B2D2G,2] "_Fine."H|][K:Eb]
uB |\


